X:281
T:Kruaremorens polska efter Kungs-Otto Johansson och Bernhard Ljunggren
T:(SmM I:281)
R:Polska
O:Voxtorp, Halland och Markaryd, Småland
S:Kungs-Otto Johansson
S:Nils Bernhard Ljunggren
B:Småländsk Musiktradition
N:1924
M:3/4
L:1/8
K:C
[E(c]G) (EC) (DB,)|(CE) (Gc) [ce][ee]|[dg]g (^f/g/)(f/e/) [Ae][ee]|[Ec] (3(c/d/c/) (BA [G,)G][G,G]|
[E(c]G) (EC) (DB,)|(CE) (Gc) [ce][ee]|[Bg]g (^f/e/f/g/) (af)|[ee]2 (g/^f/e/d/) [ee]2:|
|:(e/f/)(g/f/) (ec) [cF]c|(d/e/)(f/e/) (dB) [GB][GB]|(A/B/)(c/B/) (AF) [A,F][A,F]|
(E/F/)(G/F/) EC [CE][CE]|B,B, A,A, G,2|(f/e/)(f/g/) (af) [ee]2|(g/e/)(d/B/) (Bc) [cE]2:|

